lib/brands/icons/vimeo.svg

<svg xmlns="http://www.w3.org/2000/svg" fill="none" aria-hidden="true" viewBox="0 0 48 48"><g id="vimeo-Icon"><path id="Vector" fill="#32B8E8" d="M41.9826 15.6181C41.8224 19.1292 39.3747 23.937 34.6407 30.0391C29.7461 36.4133 25.605 39.6 22.2174 39.6C20.1197 39.6 18.343 37.6596 16.893 33.7773C15.9238 30.2187 14.9558 26.6605 13.987 23.1018C12.9095 19.2217 11.7543 17.2792 10.5191 17.2792C10.2498 17.2792 9.30734 17.8469 7.69381 18.978L6 16.7917C7.77661 15.2275 9.52946 13.6637 11.2539 12.0976C13.6234 10.046 15.4022 8.96706 16.5877 8.85798C19.3896 8.58834 21.114 10.5072 21.7613 14.6148C22.4607 19.0464 22.9446 21.8029 23.2168 22.8819C24.0242 26.5586 24.9127 28.3946 25.8836 28.3946C26.6371 28.3946 27.769 27.2023 29.2781 24.8176C30.7858 22.4322 31.5933 20.6175 31.7024 19.3708C31.9169 17.3123 31.1091 16.2805 29.2781 16.2805C28.4163 16.2805 27.5278 16.4792 26.6137 16.872C28.3828 11.0655 31.7632 8.24562 36.7528 8.40654C40.4519 8.51526 42.1957 10.919 41.9826 15.6181Z"/></g></svg>

<svg xmlns="http://www.w3.org/2000/svg" fill="none" aria-hidden="true" viewBox="0 0 48 48"><path fill="#32B8E8" d="M41.983 15.618c-.16 3.511-2.608 8.319-7.342 14.421-4.895 6.374-9.036 9.561-12.424 9.561-2.097 0-3.874-1.94-5.324-5.823-.97-3.558-1.937-7.117-2.906-10.675-1.078-3.88-2.233-5.823-3.468-5.823-.27 0-1.212.568-2.825 1.699L6 16.792a457.378 457.378 0 0 0 5.254-4.694c2.37-2.052 4.148-3.13 5.334-3.24 2.802-.27 4.526 1.65 5.173 5.757.7 4.431 1.184 7.188 1.456 8.267.807 3.677 1.696 5.513 2.667 5.513.753 0 1.885-1.193 3.394-3.577 1.508-2.386 2.315-4.2 2.424-5.447.215-2.059-.593-3.09-2.424-3.09-.862 0-1.75.198-2.664.591 1.769-5.806 5.15-8.626 10.139-8.465 3.699.108 5.443 2.512 5.23 7.211Z"/></svg>
